!!!OTL: WIE HERRLICH LEUCHTET MIR DIE NATUR
!!!ARE: Europa, Mitteleuropa, Deutschland
!!!SCT: B0210
!!!YEM: Copyright 1995, estate of Helmut Schaffrath.
**kern
*ICvox
*Ivox
*M3/4
*k[b-]
*F:
{8cc
8cc
8cc
=1
4cc
8a
8f
8g
8a
=2
4f
8r}
{8c
8f
8a
=3
8g
8cc
8cc
8ee
8dd
8ee
=4
4cc
8r}
{8cc
8dd
8ee
=5
8ff
8a
8a
8a
8b-
8cc
=6
4dd
8r}
{8b-
8cc
8dd
=7
8cc
8ff
8cc
8a
8b-
8g
=8
4f
8r}
==
!!!AGN: Jahreszeiten - Lied, Fruehling
!!!ONB: ESAC (Essen Associative Code) Database: BOEHME
!!!AMT: simple triple
!!!AIN: vox
!!!EED: Helmut Schaffrath
!!!EEV: 1.0
*-
